X: 8466
T: Craignish Milkmaid
R: slip jig
M: 9/8
K: Emajor
|:edB BAG EGB|edB BAG B2B|edB BAG EGB|AGE BGE A2A:|
|:BGE E2B GEB|GE A2 GE =D2F|Ecd edB AGA|BcB BcA B2B:|

